logos/cloudinary-icon.svg

<?xml version="1.0" encoding="UTF-8"?>
<svg width="256px" height="168px" viewBox="0 0 256 168" version="1.1" xmlns="http://www.w3.org/2000/svg" preserveAspectRatio="xMidYMid">
    <title>Cloudinary</title>
    <g>
        <path d="M75.0596066,75.2015741 C75.2469312,75.2015741 75.4264357,75.2766767 75.5579481,75.4100745 L99.11784,98.9911724 C99.312162,99.1909962 99.3693718,99.4870856 99.2634768,99.7449168 C99.1575819,100.002748 98.9087764,100.173152 98.6301014,100.17871 L92.6075908,100.17871 C92.2175275,100.178541 91.8980585,100.488614 91.886586,100.878508 L91.886586,153.893567 C91.8951363,157.249203 93.228951,160.465602 95.5976401,162.842508 L99.11784,166.362708 C99.312162,166.562532 99.3693718,166.858621 99.2634768,167.116453 C99.1575819,167.374284 98.9087764,167.544688 98.6301014,167.550246 L70.850211,167.550246 C63.823153,167.550246 58.126597,161.85369 58.126597,154.826632 L58.126597,100.878508 C58.126597,100.49202 57.8132864,100.17871 57.4267983,100.17871 L51.4891117,100.17871 C51.206586,100.181598 50.9500394,100.014307 50.8387412,99.7546117 C50.727443,99.494916 50.7832302,99.193768 50.9801672,98.9911724 L74.561265,75.4100745 C74.6927775,75.2766767 74.872282,75.2015741 75.0596066,75.2015741 Z M127.162806,88.858253 C127.35013,88.858253 127.529635,88.9333557 127.661147,89.0667535 L151.242245,112.563027 C151.439182,112.765623 151.494969,113.066771 151.383671,113.326467 C151.272373,113.586162 151.015826,113.753453 150.733301,113.750565 L144.71079,113.750565 C144.320895,113.762037 144.010822,114.081506 144.010991,114.471569 L144.010991,153.893567 C144.013904,157.246178 145.339923,160.462155 147.700839,162.842508 L151.242245,166.362708 C151.439182,166.565304 151.494969,166.866452 151.383671,167.126148 C151.272373,167.385843 151.015826,167.553134 150.733301,167.550318 L123.017028,167.550318 C115.98997,167.550318 110.293414,161.85369 110.293414,154.826632 L110.293414,114.513981 C110.293583,114.123918 109.98351,113.804449 109.593615,113.792977 L103.592311,113.792977 C103.313636,113.787419 103.06483,113.617015 102.958935,113.359184 C102.853041,113.101353 102.91025,112.805263 103.104572,112.605439 L126.664464,89.0667535 C126.795977,88.9333557 126.975481,88.858253 127.162806,88.858253 Z M179.276608,102.368202 C179.46049,102.368202 179.636499,102.442825 179.764346,102.57499 L203.345444,126.134882 C203.554993,126.332607 203.621947,126.638551 203.514139,126.905727 C203.406331,127.172903 203.145796,127.346703 202.857706,127.343625 L196.813989,127.343625 C196.427501,127.343625 196.11419,127.656936 196.11419,128.043424 L196.11419,153.893567 C196.122741,157.249203 197.456555,160.465602 199.825244,162.842508 L203.345444,166.362708 C203.539766,166.562532 203.596976,166.858621 203.491081,167.116453 C203.385186,167.374284 203.136381,167.544688 202.857706,167.550246 L175.056609,167.550246 C168.029551,167.550246 162.332995,161.85369 162.332995,154.826632 L162.332995,128.043424 C162.332995,127.656936 162.019685,127.343625 161.633197,127.343625 L155.69551,127.343625 C155.407419,127.346703 155.146884,127.172903 155.039076,126.905727 C154.931268,126.638551 154.998223,126.332607 155.207771,126.134882 L178.788869,102.57499 C178.916717,102.442825 179.092726,102.368202 179.276608,102.368202 Z M126.68567,-0.00129915197 C163.726151,0.268389097 196.395694,24.3213189 207.650267,59.6115872 C235.158643,63.2017038 255.798993,86.5397839 256,114.280715 C256,137.176238 241.681166,156.202364 218.562194,164.123471 L217.701922,164.411754 L216.641621,164.75105 L216.641621,147.658996 C231.337395,141.466837 239.968246,129.230962 239.968246,114.280715 C239.892985,93.1844419 223.185818,75.9583658 202.18869,75.1552304 L201.479314,75.1343962 L195.117507,75.1343962 L193.590674,69.0694736 C186.097302,38.1383418 158.510741,16.2789428 126.68567,16.0544154 C100.499457,15.9287075 76.5857868,30.808619 65.109824,54.2848457 L62.7495101,59.1450547 L58.2962452,59.6115872 C38.1836676,61.7631686 21.669169,76.4737678 17.2157913,96.2047716 C12.8260333,115.653904 21.1143737,135.731579 37.8623586,146.436102 L38.5958496,146.895579 L38.5958496,164.920699 L38.4898195,164.920699 L36.8993678,164.199694 C11.7447631,152.635559 -2.9896596,126.07915 0.511218289,98.6159526 C4.01209618,71.1527552 24.9376165,49.1421067 52.1889105,44.2584264 C66.9118072,16.8510474 95.5746387,-0.176942734 126.68567,-0.00129915197 Z" fill="#3448C5"></path>
    </g>
</svg>

<?xml version="1.0" encoding="UTF-8"?>
<svg width="256" height="168" version="1.1" xmlns="http://www.w3.org/2000/svg" preserveAspectRatio="xMidYMid">
	<path d="M75.06 75.202a.7.7 0 0 1 .498.208l23.56 23.581a.7.7 0 0 1-.488 1.188h-6.022c-.39 0-.71.31-.721.7v53.015a12.724 12.724 0 0 0 3.71 8.949l3.52 3.52a.7.7 0 0 1-.487 1.187H70.85c-7.027 0-12.723-5.696-12.723-12.723v-53.948a.7.7 0 0 0-.7-.7h-5.938a.7.7 0 0 1-.509-1.188l23.581-23.58a.7.7 0 0 1 .499-.21Zm52.103 13.656a.7.7 0 0 1 .498.209l23.581 23.496a.7.7 0 0 1-.509 1.188h-6.022c-.39.011-.7.33-.7.72v39.423a12.724 12.724 0 0 0 3.69 8.949l3.541 3.52a.7.7 0 0 1-.509 1.187h-27.716c-7.027 0-12.724-5.696-12.724-12.723v-40.313c0-.39-.31-.71-.7-.721h-6a.7.7 0 0 1-.488-1.188l23.56-23.538a.7.7 0 0 1 .498-.209Zm52.114 13.51c.183 0 .36.075.487.207l23.581 23.56a.7.7 0 0 1-.487 1.209h-6.044a.7.7 0 0 0-.7.7v25.85a12.724 12.724 0 0 0 3.711 8.949l3.52 3.52a.7.7 0 0 1-.487 1.187h-27.801c-7.027 0-12.724-5.696-12.724-12.723v-26.784a.7.7 0 0 0-.7-.7h-5.937a.7.7 0 0 1-.488-1.208l23.58-23.56a.679.679 0 0 1 .489-.207ZM126.686-.002c37.04.27 69.71 24.323 80.964 59.614C235.16 63.202 255.8 86.54 256 114.28c0 22.895-14.319 41.921-37.438 49.842l-.86.289-1.06.339v-17.092c14.695-6.192 23.326-18.428 23.326-33.378-.075-21.097-16.782-38.323-37.78-39.126l-.709-.02h-6.361l-1.527-6.066c-7.494-30.93-35.08-52.79-66.905-53.015-26.187-.125-50.1 14.755-61.576 38.23l-2.36 4.861-4.454.467c-20.112 2.151-36.627 16.862-41.08 36.593-4.39 19.449 3.898 39.527 20.646 50.231l.734.46v18.025h-.106l-1.59-.721C11.744 152.636-2.99 126.08.51 98.616 4.012 71.153 24.938 49.142 52.19 44.258 66.912 16.851 95.575-.177 126.686-.002Z" fill="#3448C5"/>
</svg>
